X:1
T:Mo better Blues
T:Mo´ Better Blues
T:Bill Lee
C:Bill Lee
Z:All Rights Reserved
L:1/8
M:4/4
K:F
V:1 treble 
%%MIDI program 52
V:1
"F""Bb" z8 |"F""Bb" z8 |"F""Bb" z8 |"F""Bb" z4 CDFG |:"F""Bb" A8- |"F""F7/A" A4"F7/A" GAGF | %6
"Bb""D7" D8- |"Gm" D4 GAGF |"Gsus4""G7" D8- |"Bb/C" D4 GAGD |"F""Bb""F" F8- |"Bb" F4 CDFG :| %12
"F""Bb""F" A8- |"F7/A" A4"F7/A" GAGF |"Bb""D7" D8- |"Gm" D4 GAGF |"Gsus4""G7" D8- |"Bb/C" D4 GAGD | %18
"F""Bb""F" F8- |"Bb" F4 CDFG |] %20

